X:1
T: Miss Mary Ann Johnston's Reel
C:
R:Reel
Q: 232
K:Bb
M:4/4
L:1/8
|:F|DF BF DB, FD|EG cG EC GE|DF Bd Ac eg|fe dc dB BF|
DF BF DB, FD|EG cG EC GE|DF Bd Ac eg|fe dc dB Bf|
dB fB AF cE|DF dB cC Ce|dB fB AF ce|df ce dB Bf|
dB fB AF cE|DF Bd cC CE|DB, EC FD GE|AF ec dB B:|
